assets/instagram_logo.svg

<svg width="24" height="24" viewBox="0 0 24 24" fill="none" xmlns="http://www.w3.org/2000/svg">
<g id="Instagram_black">
<path id="Combined-Shape" fill-rule="evenodd" clip-rule="evenodd" d="M0 12C0 5.37258 5.37258 0 12 0C18.6274 0 24 5.37258 24 12C24 18.6274 18.6274 24 12 24C5.37258 24 0 18.6274 0 12ZM12.0006 5.6C10.2624 5.6 10.0443 5.6076 9.36163 5.63867C8.68029 5.66987 8.21522 5.77774 7.80828 5.93601C7.38735 6.09948 7.03028 6.31814 6.67454 6.67401C6.31854 7.02975 6.09987 7.38682 5.93586 7.80763C5.7772 8.2147 5.6692 8.6799 5.63853 9.36098C5.60799 10.0436 5.59999 10.2619 5.59999 12.0001C5.59999 13.7382 5.60773 13.9557 5.63866 14.6384C5.67 15.3197 5.77786 15.7848 5.936 16.1917C6.0996 16.6126 6.31827 16.9697 6.67414 17.3255C7.02974 17.6815 7.38681 17.9007 7.80748 18.0641C8.21469 18.2224 8.67989 18.3303 9.3611 18.3615C10.0438 18.3925 10.2618 18.4001 11.9998 18.4001C13.7381 18.4001 13.9555 18.3925 14.6382 18.3615C15.3196 18.3303 15.7852 18.2224 16.1924 18.0641C16.6132 17.9007 16.9697 17.6815 17.3253 17.3255C17.6813 16.9697 17.9 16.6126 18.064 16.1918C18.2213 15.7848 18.3293 15.3196 18.3613 14.6385C18.392 13.9558 18.4 13.7382 18.4 12.0001C18.4 10.2619 18.392 10.0438 18.3613 9.36111C18.3293 8.67977 18.2213 8.2147 18.064 7.80776C17.9 7.38682 17.6813 7.02975 17.3253 6.67401C16.9693 6.31801 16.6133 6.09934 16.192 5.93601C15.784 5.77774 15.3186 5.66987 14.6373 5.63867C13.9546 5.6076 13.7373 5.6 11.9986 5.6H12.0006Z" fill="#2243B6"/>
<path id="Combined-Shape_2" fill-rule="evenodd" clip-rule="evenodd" d="M11.4265 6.75334C11.5969 6.75307 11.787 6.75334 12.0006 6.75334C13.7094 6.75334 13.9119 6.75947 14.5868 6.79014C15.2108 6.81867 15.5494 6.92294 15.775 7.01054C16.0737 7.12654 16.2866 7.26521 16.5105 7.48921C16.7345 7.71322 16.8732 7.92655 16.9894 8.22522C17.077 8.45056 17.1814 8.78923 17.2098 9.41323C17.2405 10.0879 17.2472 10.2906 17.2472 11.9986C17.2472 13.7066 17.2405 13.9093 17.2098 14.584C17.1813 15.208 17.077 15.5466 16.9894 15.772C16.8734 16.0706 16.7345 16.2833 16.5105 16.5072C16.2865 16.7312 16.0738 16.8698 15.775 16.9858C15.5497 17.0738 15.2108 17.1778 14.5868 17.2064C13.9121 17.237 13.7094 17.2437 12.0006 17.2437C10.2916 17.2437 10.0891 17.237 9.41444 17.2064C8.79043 17.1776 8.45176 17.0733 8.22602 16.9857C7.92735 16.8697 7.71402 16.731 7.49002 16.507C7.26601 16.283 7.12735 16.0702 7.01108 15.7714C6.92348 15.5461 6.81908 15.2074 6.79068 14.5834C6.76001 13.9087 6.75388 13.7061 6.75388 11.997C6.75388 10.2879 6.76001 10.0863 6.79068 9.41163C6.81921 8.78763 6.92348 8.44896 7.01108 8.22335C7.12708 7.92468 7.26601 7.71135 7.49002 7.48735C7.71402 7.26334 7.92735 7.12468 8.22602 7.00841C8.45163 6.92041 8.79043 6.81641 9.41444 6.78774C10.0048 6.76107 10.2336 6.75307 11.4265 6.75174V6.75334ZM15.4169 7.81602C14.9929 7.81602 14.6489 8.15962 14.6489 8.58376C14.6489 9.00776 14.9929 9.35177 15.4169 9.35177C15.8409 9.35177 16.1849 9.00776 16.1849 8.58376C16.1849 8.15976 15.8409 7.81575 15.4169 7.81575V7.81602ZM12.0006 8.71336C10.1855 8.71336 8.71389 10.185 8.71389 12.0001C8.71389 13.8151 10.1855 15.2861 12.0006 15.2861C13.8157 15.2861 15.2868 13.8151 15.2868 12.0001C15.2868 10.185 13.8155 8.71336 12.0005 8.71336H12.0006Z" fill="#2243B6"/>
<path id="Shape" fill-rule="evenodd" clip-rule="evenodd" d="M12.0006 9.86671C13.1787 9.86671 14.1339 10.8218 14.1339 12.0001C14.1339 13.1782 13.1787 14.1334 12.0006 14.1334C10.8223 14.1334 9.86723 13.1782 9.86723 12.0001C9.86723 10.8218 10.8223 9.86671 12.0006 9.86671V9.86671Z" fill="#2243B6"/>
</g>
</svg>

<svg xmlns="http://www.w3.org/2000/svg" width="24" height="24" fill="#2243b6" fill-rule="evenodd" xmlns:v="https://vecta.io/nano"><path d="M0 12a12 12 0 1 1 24 0 12 12 0 1 1-24 0zm12-6.4l-2.64.04a4.7 4.7 0 0 0-1.55.3c-.42.16-.78.38-1.13.74s-.57.7-.74 1.13c-.16.4-.27.87-.3 1.55A46 46 0 0 0 5.6 12l.04 2.64a4.7 4.7 0 0 0 .3 1.55c.16.42.38.78.74 1.13s.7.58 1.13.74a4.7 4.7 0 0 0 1.55.3 45.5 45.5 0 0 0 2.64.04l2.64-.04a4.7 4.7 0 0 0 1.55-.3c.42-.16.78-.38 1.13-.74s.57-.7.74-1.13c.16-.4.27-.87.3-1.55s.04-.9.04-2.64-.01-1.96-.04-2.64-.14-1.15-.3-1.55c-.16-.42-.38-.78-.74-1.13s-.7-.57-1.13-.74a4.7 4.7 0 0 0-1.55-.3A45.4 45.4 0 0 0 12 5.6h0z"/><path d="M11.43 6.75H12l2.6.04c.62.03.96.13 1.2.22a2.1 2.1 0 0 1 .74.48 1.9 1.9 0 0 1 .48.74 3.1 3.1 0 0 1 .22 1.2l.04 2.6-.04 2.6c-.03.62-.13.96-.22 1.2a2.1 2.1 0 0 1-.48.74 1.9 1.9 0 0 1-.74.48 3.1 3.1 0 0 1-1.2.22l-2.6.04a44.6 44.6 0 0 1-2.59-.04c-.62-.03-.96-.13-1.2-.22a2.1 2.1 0 0 1-.74-.48 1.9 1.9 0 0 1-.48-.74 3.1 3.1 0 0 1-.22-1.2L6.75 12l.04-2.6c.03-.62.13-.96.22-1.2a2.1 2.1 0 0 1 .48-.74 1.9 1.9 0 0 1 .74-.48 3.1 3.1 0 0 1 1.2-.22l2-.03zm4 1.06c-.42 0-.77.34-.77.77s.34.77.77.77.77-.34.77-.77-.34-.77-.77-.77h0zM12 8.7A3.3 3.3 0 0 0 8.71 12 3.3 3.3 0 0 0 12 15.29 3.3 3.3 0 0 0 15.29 12 3.3 3.3 0 0 0 12 8.71h0zm0 1.17c1.18 0 2.13.96 2.13 2.13s-.96 2.13-2.13 2.13-2.13-.96-2.13-2.13.96-2.13 2.13-2.13h0z"/></svg>
